<?xml version="1.0" encoding="UTF-8"?>
<map version="1.10" tiledversion="1.12.1" orientation="orthogonal" renderorder="right-down" width="150" height="23" tilewidth="32" tileheight="32" infinite="0" nextlayerid="4" nextobjectid="70">
 <tileset firstgid="1" source="IslandTerrain.tsx"/>
 <tileset firstgid="86" source="ShipTerrain.tsx"/>
 <layer id="1" name="Tile Layer 1" width="150" height="23">
  <data encoding="csv">
58,0,0,0,0,0,0,0,0,0,0,0,0,0,0,0,0,0,0,0,0,0,0,0,0,0,0,0,0,0,0,0,0,0,0,0,0,0,0,0,0,0,0,0,0,0,0,0,0,0,0,0,0,0,0,0,0,0,0,0,0,0,0,0,0,0,0,0,0,0,0,0,0,0,0,0,0,0,0,0,0,0,0,0,0,0,0,0,0,0,0,0,0,0,0,0,0,0,0,0,0,0,0,0,0,0,0,0,0,0,0,0,0,0,0,0,0,0,0,0,0,0,0,0,0,0,0,0,0,0,0,0,0,0,0,0,0,0,0,0,0,0,0,0,0,0,0,0,0,0,
58,0,0,0,0,0,0,0,0,0,0,0,0,0,0,0,0,0,0,0,0,0,0,0,0,0,0,0,0,0,0,0,0,0,0,0,0,0,0,0,0,0,0,0,0,0,0,0,0,0,0,0,0,0,0,0,0,0,0,0,0,0,0,0,0,0,0,0,0,0,0,0,0,0,0,0,0,0,0,0,0,0,0,0,0,0,0,0,0,0,0,0,0,0,0,0,0,0,0,0,0,0,0,0,0,0,0,0,0,0,0,0,0,0,0,0,0,0,0,0,0,0,0,0,0,0,0,0,0,0,0,0,0,0,0,0,0,0,0,0,0,0,0,0,0,0,0,0,0,0,
58,0,0,0,0,0,0,0,0,0,0,0,0,0,0,0,0,0,0,0,0,0,0,0,0,0,0,0,0,0,0,0,0,0,0,0,0,0,0,0,0,0,0,0,0,0,0,0,0,0,0,0,0,0,0,0,0,0,0,0,0,0,0,0,0,0,0,0,0,0,0,0,0,0,0,0,0,0,0,0,0,0,0,0,0,0,0,0,0,0,0,0,0,0,0,0,0,0,0,0,0,0,0,0,0,0,0,0,0,0,0,0,0,0,0,0,0,0,0,0,0,0,0,0,0,0,0,0,0,0,0,0,0,0,0,0,0,0,0,0,0,0,0,0,0,0,0,0,0,0,
58,0,0,0,0,0,0,0,0,0,0,0,0,0,0,0,0,0,0,0,0,0,0,0,0,0,0,0,0,0,0,0,0,0,0,0,0,0,0,0,0,0,0,0,0,0,0,0,0,0,0,0,0,0,0,0,0,0,0,0,0,0,0,0,0,0,0,0,0,0,0,0,0,0,0,0,0,0,0,0,0,0,0,0,0,0,0,0,0,0,0,0,0,0,0,0,0,0,0,0,0,0,0,0,0,0,0,0,0,0,0,0,0,0,0,0,0,0,0,0,0,0,0,0,0,0,0,0,0,0,0,0,0,0,0,0,0,0,0,0,0,0,0,0,0,0,0,0,0,0,
58,0,0,0,0,0,0,0,0,0,0,0,0,0,0,0,0,0,0,0,0,0,0,0,0,0,0,0,0,0,0,0,0,0,0,0,0,0,0,0,0,0,0,0,0,0,0,0,0,0,0,0,0,0,0,0,0,0,0,0,0,0,0,0,0,0,0,0,0,0,0,0,0,0,0,0,0,0,0,0,0,0,0,0,0,0,0,0,0,0,0,0,0,0,0,0,0,0,0,0,0,0,0,0,0,0,0,0,0,0,0,0,0,0,0,0,0,0,0,0,0,0,0,0,0,0,0,0,0,0,0,0,0,0,0,0,0,0,0,0,0,0,0,0,0,0,0,0,0,0,
58,0,0,0,0,0,0,0,0,0,0,0,0,0,0,0,0,0,0,0,0,0,0,0,0,0,0,0,0,0,0,0,0,0,0,0,0,0,0,0,0,0,0,0,0,0,0,0,0,0,0,0,0,0,0,0,0,0,0,0,0,0,0,0,0,0,0,0,0,0,0,0,0,0,0,0,0,0,0,0,0,0,0,0,0,0,0,0,0,0,0,0,0,0,0,0,0,0,0,0,0,0,0,0,0,0,0,0,0,0,0,0,0,0,0,0,0,0,0,0,0,0,0,0,0,0,0,0,0,0,0,0,0,0,0,0,0,0,0,0,0,0,0,0,0,0,0,0,0,0,
58,0,0,0,0,0,0,0,0,0,0,0,0,0,0,0,0,0,0,0,0,0,0,0,0,0,0,0,0,0,0,0,0,0,0,0,0,0,0,0,0,0,0,0,0,0,0,0,0,0,0,0,0,0,0,0,0,0,0,0,0,0,0,0,0,0,0,0,0,0,0,0,0,0,0,0,0,0,0,0,0,0,0,0,0,0,0,0,0,0,0,0,0,0,0,0,0,0,0,0,0,0,0,0,0,0,0,0,0,0,0,0,0,0,0,0,0,0,0,0,0,0,0,0,0,0,0,0,0,0,0,0,0,0,0,0,0,0,0,0,0,0,0,0,0,0,0,0,0,0,
58,0,0,0,0,0,0,0,0,0,0,0,0,0,0,0,0,0,0,0,0,0,0,0,0,0,0,0,0,0,0,0,0,0,0,0,0,0,0,0,0,0,0,0,0,0,0,0,0,0,0,0,0,0,0,0,0,0,0,0,0,0,0,0,0,0,0,0,0,0,0,0,0,0,0,0,0,0,0,0,0,0,0,0,0,0,0,0,0,0,0,0,0,0,0,0,0,0,0,0,0,0,0,0,0,0,0,0,0,0,0,0,0,0,0,0,0,0,0,0,0,0,0,0,0,0,0,0,0,0,0,0,0,0,0,0,0,0,0,0,0,0,0,0,0,0,0,0,0,0,
58,0,0,0,0,0,0,0,0,0,0,0,0,0,0,0,0,0,0,0,0,0,0,0,0,0,0,0,0,0,0,0,0,0,0,0,0,0,0,0,0,0,0,0,0,0,0,0,0,0,0,0,0,0,0,0,0,0,0,0,0,0,0,0,0,0,0,0,0,0,0,0,0,0,0,0,0,0,0,0,0,0,0,0,0,0,0,0,0,0,0,0,0,0,0,0,0,0,0,0,0,0,0,0,0,0,0,0,0,0,0,0,0,0,0,0,0,0,0,0,0,0,0,0,0,0,0,0,0,0,0,0,0,0,0,0,0,0,0,0,0,0,0,0,0,0,0,0,0,0,
58,0,0,0,0,0,0,0,69,70,71,0,0,0,0,0,0,0,0,0,0,0,0,0,0,0,0,0,0,0,0,0,0,0,0,0,0,0,0,0,0,0,0,0,0,0,0,0,0,0,0,0,0,0,0,0,0,0,0,0,0,0,0,0,0,0,0,0,0,0,0,0,0,0,0,0,0,0,0,0,0,0,0,0,0,0,0,0,0,0,0,0,0,0,0,0,0,0,0,0,0,0,0,0,0,0,0,0,0,0,0,0,0,0,0,0,0,0,0,0,0,0,0,0,0,0,0,0,0,0,0,0,0,0,0,0,0,0,0,0,0,0,0,0,0,0,0,0,0,0,
58,0,0,0,0,0,0,0,0,0,0,0,0,0,0,0,0,0,0,0,0,0,0,0,0,0,0,0,0,0,0,0,0,0,0,0,0,0,0,0,0,0,0,0,0,0,0,0,0,0,0,0,0,0,0,0,0,0,0,0,0,0,0,0,0,0,0,0,0,0,0,0,0,0,0,0,0,0,0,0,0,0,0,0,0,0,0,0,0,0,0,0,0,0,0,0,0,0,0,0,0,0,0,0,0,0,0,0,0,0,0,0,0,0,0,0,0,0,0,0,0,0,0,0,0,0,0,0,0,0,0,0,0,0,0,0,0,0,0,0,0,0,0,0,0,0,0,0,0,0,
58,0,0,0,0,0,0,0,0,0,0,0,0,0,0,0,0,0,0,0,0,0,0,0,0,0,0,0,0,0,0,0,0,0,0,0,0,0,0,0,0,0,0,0,0,0,0,0,0,0,0,0,0,0,0,0,0,0,0,0,0,0,0,0,0,0,0,0,0,0,0,0,0,0,0,0,0,0,0,0,0,0,0,0,0,0,0,0,0,0,0,0,0,0,0,0,0,0,0,0,0,0,0,0,0,0,0,0,0,0,0,0,0,0,0,0,0,0,0,0,0,0,0,0,0,0,0,0,0,0,0,0,0,0,0,0,0,0,0,0,0,0,0,0,0,0,0,0,0,0,
58,0,0,0,0,0,0,0,0,0,0,0,0,0,0,0,0,0,0,0,0,0,0,0,0,0,0,0,0,0,0,0,0,0,0,69,70,70,70,71,0,0,0,0,0,0,0,0,0,0,0,0,0,0,0,0,0,0,0,0,0,0,0,0,0,0,0,0,0,0,0,0,0,0,0,0,0,0,0,0,0,0,0,0,0,0,0,0,0,0,0,0,0,0,0,0,0,0,0,0,0,0,0,0,0,0,0,0,0,0,0,0,0,0,0,0,0,0,0,0,0,0,0,0,0,0,0,0,0,0,0,0,0,0,0,0,0,0,0,0,0,0,0,0,0,0,0,0,0,0,
58,0,0,0,0,0,0,0,0,0,0,0,0,69,70,71,0,0,0,0,0,0,0,0,0,0,0,0,0,0,0,0,0,0,0,0,0,0,0,0,0,0,0,0,0,0,0,0,0,0,0,0,0,0,0,0,0,0,0,0,0,0,0,0,0,0,0,0,0,0,0,0,0,0,0,0,0,0,0,0,0,0,0,0,0,0,0,0,0,0,0,0,0,0,0,0,0,0,0,0,0,0,0,0,0,0,0,0,0,0,0,0,0,0,0,0,0,0,0,0,0,0,0,0,0,0,0,0,0,0,0,0,0,0,0,0,0,0,0,0,0,0,0,0,0,0,0,0,0,0,
58,0,0,0,0,0,0,0,0,0,0,0,0,0,0,0,0,0,0,0,0,0,0,0,0,0,0,0,0,0,0,0,0,0,0,0,0,0,0,0,0,0,0,0,0,0,0,0,0,0,0,0,0,0,0,0,0,0,0,0,0,0,0,0,0,0,0,0,0,0,0,0,0,0,0,0,0,0,0,0,0,0,0,0,0,0,0,0,0,0,0,0,0,0,0,0,0,0,0,0,0,0,0,0,0,0,0,0,0,0,0,0,0,0,0,0,0,0,0,0,0,0,0,0,0,0,0,0,0,0,0,0,0,0,0,0,0,0,0,0,0,0,0,0,0,0,0,0,0,0,
58,0,0,0,0,0,0,0,0,0,0,0,0,0,0,0,0,0,0,0,0,0,0,0,0,0,0,69,70,70,70,70,70,71,0,0,0,0,0,0,0,0,0,0,0,0,0,0,0,0,0,0,0,1,2,2,2,2,3,0,0,0,0,0,0,0,0,0,0,0,0,0,0,0,0,0,0,0,0,0,0,0,0,0,0,0,0,0,0,0,0,0,0,0,0,0,0,0,0,0,0,0,0,0,0,0,0,0,0,0,0,0,0,0,0,0,0,0,0,0,0,0,0,0,0,0,0,0,0,0,0,0,0,0,0,0,0,0,0,0,0,0,0,0,0,0,0,0,0,0,
58,0,0,0,0,0,0,0,0,0,0,0,0,0,0,0,0,0,0,0,0,1,2,3,0,0,0,0,0,0,0,0,0,0,0,0,0,0,0,0,0,0,0,0,0,0,0,0,0,0,0,0,0,18,19,19,19,19,20,0,0,0,0,0,0,0,0,0,0,0,0,0,0,0,0,0,0,0,0,0,0,0,0,0,0,0,0,0,0,0,0,0,0,0,0,0,0,0,0,0,0,0,0,0,0,0,0,0,0,0,0,0,0,0,0,0,0,0,0,0,0,0,0,0,0,0,0,0,0,0,0,0,0,0,0,0,0,0,0,0,0,0,0,0,0,0,0,0,0,0,
58,0,0,0,0,0,0,0,0,0,0,0,0,0,0,0,0,0,0,0,0,18,19,20,0,0,0,0,0,0,0,0,0,0,0,0,0,0,0,0,0,0,0,0,0,0,0,0,0,0,0,0,0,18,19,19,19,19,20,0,0,0,0,0,0,0,110,110,110,0,0,0,0,0,0,0,0,0,0,0,0,0,0,0,0,0,0,0,0,0,0,0,0,0,0,0,0,0,0,0,0,0,0,0,0,0,0,0,0,0,0,0,0,0,0,0,0,0,0,0,0,0,0,0,0,0,0,0,0,0,0,0,0,0,0,0,0,0,0,0,0,0,0,0,0,0,0,0,0,0,
58,0,0,0,0,0,0,0,0,0,0,0,0,0,0,0,0,0,0,0,0,18,19,20,0,0,0,0,0,0,0,0,0,0,0,0,0,0,0,0,0,0,0,0,0,0,0,0,0,0,0,0,0,18,19,19,19,19,20,0,0,0,0,0,0,0,129,129,129,0,0,0,0,0,0,0,0,0,0,0,0,0,0,0,0,0,0,0,0,0,0,0,0,0,0,0,0,0,0,0,0,0,0,0,0,0,0,0,0,0,0,0,0,0,0,0,0,0,0,0,0,0,0,0,0,0,0,0,0,0,0,0,0,0,0,0,0,0,0,0,0,0,0,0,0,0,0,0,0,0,
75,1,2,2,2,2,2,2,2,2,2,2,2,2,2,2,2,2,2,2,3,18,19,20,0,0,0,0,0,0,0,0,0,0,0,0,1,2,2,2,2,2,2,2,2,2,2,2,2,2,2,2,3,18,19,19,19,19,20,0,0,0,1,2,2,2,2,2,2,2,2,2,2,2,2,2,2,2,3,0,0,0,0,0,0,0,0,0,0,0,0,0,0,0,0,0,0,0,0,0,0,0,0,0,0,0,0,0,0,0,0,0,0,0,0,0,0,0,0,0,0,0,0,0,0,0,0,0,0,0,0,0,0,0,0,0,0,0,0,0,0,0,0,0,0,0,0,0,0,0,
18,19,19,19,19,19,19,19,19,19,19,19,19,19,19,19,19,19,19,19,20,18,19,20,0,0,0,0,0,0,0,0,0,0,0,0,18,19,19,19,19,19,19,19,19,19,19,19,19,19,19,19,20,18,19,19,19,19,20,0,0,0,18,19,19,19,19,19,19,19,19,19,19,19,19,19,19,19,20,0,0,0,0,0,0,0,0,0,0,0,0,0,0,0,0,0,0,0,0,0,0,0,0,0,0,0,0,0,0,0,0,0,0,0,0,0,0,0,0,0,0,0,0,0,0,0,0,0,0,0,0,0,0,0,0,0,0,0,0,0,0,0,0,0,0,0,0,0,0,0,
18,19,19,19,19,19,19,19,19,19,19,19,19,19,19,19,19,19,19,19,20,18,19,20,0,0,0,0,0,0,0,0,0,0,0,0,18,19,19,19,19,19,19,19,19,19,19,19,19,19,19,19,20,18,19,19,19,19,20,0,0,0,18,19,19,19,19,19,19,19,19,19,19,19,19,19,19,19,20,0,0,0,0,0,0,0,0,0,0,0,0,0,0,0,0,0,0,0,0,0,0,0,0,0,0,0,0,0,0,0,0,0,0,0,0,0,0,0,0,0,0,0,0,0,0,0,0,0,0,0,0,0,0,0,0,0,0,0,0,0,0,0,0,0,0,0,0,0,0,0,
36,36,36,36,36,36,36,36,36,36,36,36,36,36,36,36,36,36,36,36,37,35,36,37,0,0,0,0,0,0,0,0,0,0,0,0,35,36,36,36,36,36,36,36,36,36,36,36,36,36,36,36,37,35,36,36,36,36,37,0,0,0,35,36,36,36,36,36,36,36,36,36,36,36,36,36,36,36,37,0,0,0,0,0,0,0,0,0,0,0,0,0,0,0,0,0,0,0,0,0,0,0,0,0,0,0,0,0,0,0,0,0,0,0,0,0,0,0,0,0,0,0,0,0,0,0,0,0,0,0,0,0,0,0,0,0,0,0,0,0,0,0,0,0,0,0,0,0,0,0
</data>
 </layer>
 <objectgroup id="3" name="Collisions">
  <object id="1" x="0.666667" y="0.666667" width="32.6667" height="734.667"/>
  <object id="2" x="30" y="608.667" width="648.333" height="127.333"/>
  <object id="4" type="Platform" x="255.5" y="287.5" width="97" height="32.5"/>
  <object id="5" type="Platform" x="415.5" y="416.75" width="97" height="32.5"/>
  <object id="6" type="Platform" x="415.5" y="416.75" width="97" height="32.5"/>
  <object id="8" x="673.333" y="512" width="94" height="223.333"/>
  <object id="10" x="865.333" y="477.333" width="220" height="34.6667"/>
  <object id="11" x="1154.67" y="609.333" width="540" height="125.333"/>
  <object id="23" x="1697.33" y="480" width="186.667" height="253.333"/>
  <object id="24" x="1984" y="608" width="541.333" height="125.333"/>
  <object id="26" x="1121.33" y="384" width="154.667" height="30.6667"/>
  <object id="29" x="2113.33" y="544" width="92" height="62.6667"/>
 </objectgroup>
 <objectgroup id="2" name="Spawn">
  <properties>
   <property name="headOption" type="int" value="1"/>
   <property name="shapeOption" type="int" value="0"/>
  </properties>
  <object id="12" type="Sword" x="929.333" y="416" width="58.6667" height="60"/>
  <object id="14" type="Barrel" x="1378.66" y="546.667" width="64" height="64"/>
  <object id="16" type="leftPalmTree" x="36" y="354" width="96" height="96"/>
  <object id="17" type="rightPalmTree" x="1057.66" y="578" width="96" height="96"/>
  <object id="18" type="regularPalmTree" x="319" y="513" width="96" height="96"/>
  <object id="19" type="regularPalmTree" x="480" y="514" width="96" height="96"/>
  <object id="20" type="leftPalmTree" x="766.667" y="542.667" width="96" height="96"/>
  <object id="21" type="regularPalmTree" x="256" y="193.333" width="96" height="96"/>
  <object id="22" type="regularPalmTree" x="416" y="320" width="96" height="96"/>
  <object id="25" type="cannon" x="1152" y="322" width="62.6667" height="62.6667"/>
  <object id="27" type="Seashell" x="1598.67" y="544" width="65.3333" height="65.3333"/>
  <object id="31" type="tottemHead" x="2129.34" y="489.333" width="57.3333" height="62.6667">
   <properties>
    <property name="headOption" type="int" value="1"/>
    <property name="shapeOption" type="int" value="1"/>
   </properties>
  </object>
  <object id="32" type="Diamond" x="191" y="576" width="32" height="32">
   <properties>
    <property name="color" value="Blue"/>
   </properties>
  </object>
  <object id="33" type="Diamond" x="256" y="576" width="32" height="32">
   <properties>
    <property name="color" value="Red"/>
   </properties>
  </object>
  <object id="34" type="Diamond" x="320" y="576" width="32" height="32">
   <properties>
    <property name="color" value="Blue"/>
   </properties>
  </object>
  <object id="35" type="Diamond" x="385" y="576" width="32" height="32">
   <properties>
    <property name="color" value="Red"/>
   </properties>
  </object>
  <object id="36" type="Diamond" x="449" y="577" width="32" height="32">
   <properties>
    <property name="color" value="Green"/>
   </properties>
  </object>
  <object id="37" type="Diamond" x="513" y="577" width="32" height="32">
   <properties>
    <property name="color" value="Red"/>
   </properties>
  </object>
  <object id="38" type="Coin" x="673" y="481" width="32" height="32">
   <properties>
    <property name="color" value="Gold"/>
   </properties>
  </object>
  <object id="39" type="Coin" x="735" y="481" width="32" height="32">
   <properties>
    <property name="color" value="Gold"/>
   </properties>
  </object>
  <object id="40" type="Coin" x="705" y="481" width="32" height="32">
   <properties>
    <property name="color" value="Silver"/>
   </properties>
  </object>
  <object id="41" type="Barrel" x="1762" y="416" width="64" height="64"/>
  <object id="42" type="Barrel" x="2433" y="542" width="64" height="64"/>
  <object id="43" type="Barrel" x="2271" y="543" width="64" height="64"/>
  <object id="44" type="regularPalmTree" x="1250" y="512" width="96" height="96"/>
  <object id="45" type="regularPalmTree" x="1472" y="512" width="96" height="96"/>
  <object id="46" type="regularPalmTree" x="1790" y="384" width="96" height="96"/>
  <object id="47" type="leftPalmTree" x="1885" y="513" width="96" height="96"/>
  <object id="48" type="rightPalmTree" x="1601.33" y="484" width="96" height="96"/>
  <object id="49" type="rightPalmTree" x="1889.33" y="577" width="96" height="96"/>
  <object id="50" type="waterReflect" x="34" y="511" width="192" height="32">
   <properties>
    <property name="isBig" type="bool" value="true"/>
   </properties>
  </object>
  <object id="54" type="waterReflect" x="254.667" y="512" width="192" height="32">
   <properties>
    <property name="isBig" type="bool" value="true"/>
   </properties>
  </object>
  <object id="55" type="waterReflect" x="481" y="512" width="192" height="32">
   <properties>
    <property name="isBig" type="bool" value="true"/>
   </properties>
  </object>
  <object id="56" type="waterReflect" x="800.667" y="511.333" width="192" height="32">
   <properties>
    <property name="isBig" type="bool" value="true"/>
   </properties>
  </object>
  <object id="57" type="waterReflect" x="1025.33" y="512.667" width="192" height="32">
   <properties>
    <property name="isBig" type="bool" value="true"/>
   </properties>
  </object>
  <object id="58" type="waterReflect" x="1249.33" y="513.333" width="192" height="32">
   <properties>
    <property name="isBig" type="bool" value="true"/>
   </properties>
  </object>
  <object id="59" type="waterReflect" x="1472" y="512.667" width="192" height="32">
   <properties>
    <property name="isBig" type="bool" value="true"/>
   </properties>
  </object>
  <object id="60" type="waterReflect" x="1920.33" y="512.333" width="192" height="32">
   <properties>
    <property name="isBig" type="bool" value="true"/>
   </properties>
  </object>
  <object id="61" type="smallCloud" x="784" y="264" width="128" height="32"/>
  <object id="63" type="smallCloud" x="527.333" y="165.333" width="128" height="32"/>
  <object id="64" type="smallCloud" x="80" y="87" width="128" height="32"/>
  <object id="65" type="smallCloud" x="696.333" y="60.3333" width="128" height="32"/>
  <object id="66" type="smallCloud" x="990.667" y="112" width="128" height="32"/>
  <object id="67" type="smallCloud" x="1094.67" y="220" width="128" height="32"/>
  <object id="68" type="smallCloud" x="568" y="344" width="128" height="32"/>
  <object id="69" type="smallCloud" x="350.667" y="61.3333" width="128" height="32"/>
 </objectgroup>
</map>
